X: 22334
T: La Valsounette
R: waltz
M: 3/4
K: Aminor
G AG|:"Am"EA cB AG|"F"FA cB A^G|"Am"Ac e^g ab|"C"c'3 c' ba|
"G"ge ba ge|"D/F#"^f2 f^g af|"E7"^g2 ed BA|"E7/G#"^GA BG FD|
"Am"EA cB AG|"F"FA cB A^G|"Am"Ac e^g ab|"C"c'3 c' bc'|
"G"d'c' ba d'c'|b3 ef2|"E7/G#"e^g be c'b|"Am"a3 G AG|
"Am"EA cB AG|"F"FA cB A^G|"Am"Ac e^g ab|"C"c'3 c' ba|
"G"ge ba ge|"D/F#"^f2 f^g af|"E7"^g2 ed BA|"E7/G#"^GA BG FD|
"Am"EA cB AG|"F"FA cB A^G|"Am"Ac e^g ab|"C"c'3 c' bc'|
"G"d'c' ba d'c'|b3 ef2|"E7/G#"e^g be c'b|"Am"a4a2|
"E7"b^g ge eb|b^g ge ec'|"Am"c'a ae ec'|c'a ae eb|
"E7"b^g ge eb|b^g ge e2|"F"FE FG AB|"D7"(3c2Bc2 (3d2cd2 (3e2^ga2|
"E7"b^g ge eb|b^g ge ec'|"Am"c'a ae ec'|c'a ae bc'|
"G"d'c' ba d'c'|b3 ef2|"E7/G#"e^g be c'b|1 "Am"a3 G AG:|2 "Am"a4a2||
"E7"(3b2^ge2 (3b2ge2 g2|(3b2^ge2 (3b2ge2 g2|"Am"(3c'2ae2 (3c'2ae2 a2|(3c'2ae2 (3c'2ae2 a2|
"E7"(3b2^ge2 (3b2ge2 g2|(3b2^ge2 (3b2ge2 g2|"F"FE FG AB|"D7" (3c2Bc2 (3d2cd2 (3e2^ga2|
"E7"(3b2^ge2 (3b2ge2 g2|(3b2^ge2 (3b2ge2 g2|"Am"(3c'2ae2 (3c'2ae2 a2|(3c'2ae2 (3c'2ae2 bc'|
"G"d'c' ba d'c'|b3 ef2|"E7/G#"e^g be c'b|"Am"a6||

